X: 5041
T: Brian O'Lynn
R: jig
M: 6/8
K: Bminor
|:c|dBe dBA|F2 F ABc|dBe dBA|FBB B2c|
dBe dBA|F2F ABc|def gfe|dBBB2:|
|:f/g/|aba afe|dBc d2 e|fbb baf|baf e2f/g/|
aba afe|dBc def|gfe dBA|1 FBB B2:|2 FBB B3||

